static/shield.svg

<?xml version="1.0" encoding="utf-8"?><!-- Uploaded to: SVG Repo, www.svgrepo.com, Generator: SVG Repo Mixer Tools -->
<svg width="800px" height="800px" viewBox="0 0 24 24" fill="none" xmlns="http://www.w3.org/2000/svg">
<path d="M11.302 21.6149C11.5234 21.744 11.6341 21.8086 11.7903 21.8421C11.9116 21.8681 12.0884 21.8681 12.2097 21.8421C12.3659 21.8086 12.4766 21.744 12.698 21.6149C14.646 20.4784 20 16.9084 20 12V6.6C20 6.04207 20 5.7631 19.8926 5.55048C19.7974 5.36198 19.6487 5.21152 19.4613 5.11409C19.25 5.00419 18.9663 5.00084 18.3988 4.99413C15.4272 4.95899 13.7136 4.71361 12 3C10.2864 4.71361 8.57279 4.95899 5.6012 4.99413C5.03373 5.00084 4.74999 5.00419 4.53865 5.11409C4.35129 5.21152 4.20259 5.36198 4.10739 5.55048C4 5.7631 4 6.04207 4 6.6V12C4 16.9084 9.35396 20.4784 11.302 21.6149Z" stroke="#000000" stroke-width="2" stroke-linecap="round" stroke-linejoin="round"/>
</svg>

<svg xmlns="http://www.w3.org/2000/svg" width="800" height="800" fill="none" viewBox="0 0 24 24"><path stroke="currentColor" stroke-linecap="round" stroke-linejoin="round" stroke-width="2" d="M11.3 21.61c.22.13.33.2.49.23.12.03.3.03.42 0 .16-.03.27-.1.49-.23 1.95-1.13 7.3-4.7 7.3-9.61V6.6c0-.56 0-.84-.1-1.05a1 1 0 0 0-.44-.44c-.21-.1-.5-.1-1.06-.12C15.43 4.96 13.7 4.71 12 3c-1.71 1.71-3.43 1.96-6.4 2-.57 0-.85 0-1.06.11a1 1 0 0 0-.43.44C4 5.76 4 6.05 4 6.6V12c0 4.9 5.35 8.48 7.3 9.61"/></svg>
